X:1
T:When thou art weary
T:Joachim Kelecom (°1977)
T:John Chrysostom (? - 407) Homily IX on Thessalonians I
T:for my mother
T:Als u het bidden moe bent omdat u niet ontvangt, bedenk dan eens hoe vaak een arme u heeft aangesproken en gij hem negeerde? En toch werd hij niet kwaad.
T:When thou art weary
C:Joachim Kelecom (°1977)
Z:John Chrysostom (? - 407)
Z:Homily IX on Thessalonians I
%%score [ 1 2 3 4 ]
L:1/8
Q:1/4=120
M:2/2
K:Gmin
V:1 treble nm="Soprano" snm="S"
V:2 treble nm="Alto" snm="A"
V:3 treble-8 nm="Tenor" snm="T"
V:4 bass nm="Bass" snm="B"
V:1
 G4 | B8 | A8 | G4 d4- | d4 c4 | e8 | d8 | d2 c2 B2 A2 | (G4 B4) | e2 d2 c2 B2 | (A4 c4) | %11
w: When|thou|art|wear- y|_ of|pray-|ing,|and dost not re-|ceive, _|and dost not re-|ceive, _|
 d2 B2 c2 A2 | (B4 c4 | A8) | z4 d4 | d2 c2 z2 c2 | c2 B2 z2 e2 | d4 d4 | z4 d4 | g2 f2 e2 d2 | %20
w: and dost not re-|ceive, _|_|con-|si- der, con-|si- der, con-|si- der|How|of- ten thou hast|
 c4 B4 | c4 d4 | z4 d4 | e2 d2 c2 B2 | A4 G4 | ^F4 F4 | G4 A2 A2 | B4 c4 | d4 e2 g2 | ^f4 d4 | z8 | %31
w: heard a|poor man|How|of- ten thou hast|heard a|poor man|call- ing up-|on thee,|call- ing up-|on thee||
 z8 | z8 | G4 A2 A2 | B4 c2 c2 | d8 | d2 e4 d2 | c4 B2 A2 | G8 | z8 | z8 | z8 | f2 e2 d4 | %43
w: ||And hast not|list- ened to|him?|And hast not|list- ened to|him?||||And he has|
 c2 B2 A4 | G4 G4 | d8 | d2 c2 B4 | A8 | G8 |] %49
w: not been an-|gry. And|he|has not been|an-|gry.|
V:2
 z4 | z4 G4 | F4 F4 | D4 G4- | G4 G4 | B8 | A8 | B2 A2 G2 F2 | (E4 G4) | c2 B2 A2 G2 | (F4 A4) | %11
w: |When|thou art|wear- y|_ of|pray-|ing,|and dost not re-|ceive, _|and dost not re-|ceive, _|
 B2 G2 G2 F2 | (G8 | F8) | z8 | z4 z2 A2 | A2 G2 z2 c2 | A4 A4 | z8 | z8 | z8 | z8 | z4 B4 | %23
w: and dost not re-|ceive,|_||con-|si- der, con-|si- der|||||How|
 c2 B2 A2 G2 | F4 E4 | D4 D4 | G4 A2 A2 | B4 c4 | B4 B2 B2 | A4 ^F4 | z4 G4 | F2 G2 E4 | E2 F2 D4 | %33
w: of- ten thou hast|heard a|poor man|call- ing up-|on thee,|call- ing up-|on thee|and|hast not list-|ened to him?|
 z8 | z8 | z8 | B2 B4 B2 | A4 G2 F2 | D8 | z8 | z8 | z8 | G2 G2 B4 | A2 G2 F4 | G4 z4 | G4 B4 | %46
w: |||And hast not|list- ened to|him?||||And he has|not been an-|gry.|And he|
 B2 A2 F4 | F8 | D8 |] %49
w: has not been|an-|gry.|
V:3
 z4 | d8 | c4 c4 | B4 B4- | B4 A4 | G8 | ^F8 | G2 A2 d2 c2 | (B4 d4) | g2 f2 e2 d2 | (c4 f4) | %11
w: |When|thou art|wear- y|_ of|pray-|ing,|and dost not re-|ceive, _|and dost not re-|ceive, _|
 d2 d2 e2 e2 | (d4 e4 | c8) | z8 | z8 | z4 z2 G2 | ^F4 F4 | z8 | z8 | z8 | z8 | z4 f4 | %23
w: and dost not re-|ceive, _|_|||con-|si- der|||||How|
 g2 f2 e2 d2 | c4 B4 | A4 A4 | G4 A2 A2 | B4 c4 | e4 e2 e2 | d4 d4 | z8 | z8 | z8 | z8 | z8 | z8 | %36
w: of- ten thou hast|heard a|poor man|call- ing up-|on thee,|call- ing up-|on thee|||||||
 g2 g4 g2 | f4 e2 c2 | d8 | d4 c2 d2- | d4 B2 c2 | e4 d4 | d2 c2 e4 | d2 d2 c4 | d4 z4 | B4 d4 | %46
w: And hast not|list- ened to|him?|And he has|_ not been|an- gry,|and he has|not been an-|gry.|And he|
 f2 e2 d4 | c8 | B8 |] %49
w: has not been|an-|gry.|
V:4
 z4 | z4 G,,4 | D,4 D,4 | E,4 E,4- | E,4 E,4 | C,8 | D,8 | G,,2 G,,2 C,2 C,2 | (D,4 G,,4) | %9
w: |When|thou art|wear- y|_ of|pray-|ing,|and dost not re-|ceive, _|
 C,2 D,2 E,2 F,2 | (D,4 D,4) | G,,2 G,,2 A,,2 A,,2 | (G,,4 C,4 | D,8) | z8 | z8 | z4 z2 C,2 | %17
w: and dost not re-|ceive, _|and dost not re-|ceive, _|_|||con-|
 D,4 D,4 | z4 D,4 | G,,2 G,,2 A,,2 B,,2 | C,4 G,4 | F,4 B,,4 | z8 | z8 | z8 | z8 | G,,4 A,,2 A,,2 | %27
w: si- der|How|of- ten thou hast|heard a|poor man|||||call- ing up-|
 B,,4 C,4 | G,,4 C,2 C,2 | D,4 D,4 | z8 | z8 | z8 | z8 | z8 | z8 | G,,2 G,,4 G,,2 | C,4 D,2 D,2 | %38
w: on thee,|call- ing up-|on thee|||||||And hast not|list- ened to|
 G,8 | z8 | z8 | z8 | G,,2 A,,2 B,,4 | C,2 C,2 D,4 | E,4 z4 | E,4 E,4 | F,2 F,2 G,4 | D,8 | G,,8 |] %49
w: him?||||And he has|not been an-|gry.|And he|has not been|an-|gry.|

